icons/login.svg

<svg width="24" height="24" xmlns="http://www.w3.org/2000/svg" clip-rule="evenodd" viewBox="0 0 24 24"><title>login</title><g stroke-linejoin="round" class="nc-icon-wrapper" fill="#ffffff" stroke-linecap="round" fill-rule="evenodd"><path d="M8.25,9L8.25,5.25C8.25,4.016 9.266,3 10.5,3L16.5,3C17.734,3 18.75,4.016 18.75,5.25L18.75,18.75C18.75,19.984 17.734,21 16.5,21L10.5,21C9.266,21 8.25,19.984 8.25,18.75L8.25,15M12,15L15,12M15,12L12,9M15,12L2.25,12" fill="none" fill-rule="nonzero" stroke="#ffffff" stroke-width="1.5"></path></g></svg>

<svg fill="none" stroke="currentColor" stroke-linecap="round" stroke-linejoin="round" stroke-width="1.5" viewBox="0 0 24 24"><path d="M8.25 9V5.25A2.26 2.26 0 0 1 10.5 3h6a2.26 2.26 0 0 1 2.25 2.25v13.5A2.26 2.26 0 0 1 16.5 21h-6a2.26 2.26 0 0 1-2.25-2.25V15M12 15l3-3m0 0-3-3m3 3H2.25"/></svg>
